; generated by PrusaSlicer 2.6.1+MacOS-x64 on 2023-09-23 at 04:03:01 UTC


;
;

;
;

;
;
; 

; external perimeters extrusion width = 0.25mm
; perimeters extrusion width = 0.25mm
; infill extrusion width = 0.25mm
; solid infill extrusion width = 0.25mm
; top infill extrusion width = 0.25mm
; first layer extrusion width = 0.30mm

M73 P0 R46
M201 X2500 Y2500 Z200 E2500 ; sets maximum accelerations, mm/sec^2
M203 X200 Y200 Z40 E100 ; sets maximum feedrates, mm / sec
M204 P2000 R1200 T1500 ; sets acceleration (P, T) and retract acceleration (R), mm/sec^2
M205 X8.00 Y8.00 Z2.00 E10.00 ; sets the jerk limits, mm/sec
M205 S0 T0 ; sets the minimum extruding and travel feed rate, mm/sec
;TYPE:Custom
M17 ; enable steppers
M862.3 P "MK4" ; printer model check
M862.1 P0.25 ; nozzle diameter check
M555 X97.1534 Y87.0588 W32 H28.9183

G90 ; use absolute coordinates
M83 ; extruder relative mode

M140 S60 ; set bed temp

M104 S170 ; set extruder temp for bed leveling
M109 R170 ; wait for temp


M84 E ; turn off E motor

G28 ; home all without mesh bed level

G1 X42 Y-4 Z5 F4800

M302 S160 ; lower cold extrusion limit to 160C


G1 E-2 F2400 ; retraction


M84 E ; turn off E motor

G29 P9 X10 Y-4 W32 H4

M106 S100

G0 Z40 F10000

M190 S60 ; wait for bed temp

M107

;
; MBL
;
M84 E ; turn off E motor
G29 P1 ; invalidate mbl & probe print area
G29 P1 X0 Y0 W50 H20 C ; probe near purge place
G29 P3.2 ; interpolate mbl probes
G29 P3.13 ; extrapolate mbl outside probe area
G29 A ; activate mbl

; prepare for purge
M104 S215
G0 X0 Y-4 Z15 F4800 ; move away and ready for the purge
M109 S215

G92 E0
M569 S0 E ; set spreadcycle mode for extruder

;
; Extrude purge line
;
G92 E0 ; reset extruder position
G1 E2 F2400 ; deretraction after the initial one before nozzle cleaning
G0 E7 X15 Z0.2 F500 ; purge
G0 X25 E4 F500 ; purge
G0 X35 E4 F650 ; purge
G0 X45 E4 F800 ; purge
G0 X48 Z0.05 F8000 ; wipe, move close to the bed
G0 X51 Z0.2 F8000 ; wipe, move quickly away from the bed

G92 E0
M221 S100 ; set flow to 100%
G21 ; set units to millimeters
G90 ; use absolute coordinates
M83 ; use relative distances for extrusion
M900 K0.14 ; Filament gcode



M142 S36 ; set heatbreak target temp
M107
;LAYER_CHANGE
;Z:0.2
;HEIGHT:0.2
;BEFORE_LAYER_CHANGE
G92 E0.0
;0.2


G1 E-.8 F2100
G1 Z.15 F720
G1 Z.2
;AFTER_LAYER_CHANGE
;0.2
; printing object Curtain Gear.stl id:0 copy 0
G1 Z.35
G1 X97.818 Y103.518 F12000
G1 Z.2 F720
G1 E.8 F1500
M204 P600
;TYPE:Perimeter
;WIDTH:0.299999
G1 F1200
G1 X97.863 Y102.484 E.02212
G1 X97.933 Y101.876 E.01308
G1 X98.034 Y101.267 E.0132
G1 X98.168 Y100.665 E.01318
G1 X98.333 Y100.07 E.0132
G1 X98.529 Y99.484 E.01321
G1 X98.749 Y98.926 E.01282
G1 X99.201 Y97.976 E.02249
G1 X99.502 Y97.443 E.01308
G1 X99.834 Y96.922 E.01321
G1 X100.193 Y96.42 E.01319
G1 X100.566 Y95.95 E.01283
G1 X101.277 Y95.174 E.0225
G1 X101.72 Y94.753 E.01306
G1 X102.19 Y94.352 E.01321
G1 X102.675 Y93.979 E.01308
G1 X103.543 Y93.405 E.02224
G1 X104.075 Y93.104 E.01307
G1 X104.628 Y92.828 E.01321
G1 X105.194 Y92.582 E.01319
G1 X105.767 Y92.368 E.01307
G1 X106.765 Y92.072 E.02225
G1 X107.362 Y91.94 E.01307
G1 X107.971 Y91.838 E.0132
G1 X108.585 Y91.768 E.01321
G1 X109.195 Y91.731 E.01306
G1 X110.235 Y91.74 E.02223
G1 X110.845 Y91.788 E.01308
G1 X111.458 Y91.868 E.01321
G1 X112.065 Y91.981 E.0132
G1 X112.66 Y92.124 E.01308
G1 X113.652 Y92.437 E.02224
G1 X114.216 Y92.659 E.01296
G1 X115.155 Y93.107 E.02224
G1 X115.687 Y93.408 E.01307
G1 X116.203 Y93.737 E.01308
G1 X117.04 Y94.355 E.02224
G1 X117.505 Y94.753 E.01308
G1 X117.953 Y95.178 E.0132
G1 X118.37 Y95.617 E.01294
G1 X119.036 Y96.424 E.02237
G1 X119.391 Y96.922 E.01307
G1 X119.723 Y97.443 E.01321
G1 X120.027 Y97.981 E.01321
G1 X120.302 Y98.533 E.01318
G1 X120.548 Y99.1 E.01321
G1 X120.759 Y99.661 E.01281
G1 X120.923 Y100.213 E.01231
G1 X121.087 Y100.802 E.01307
G1 X121.224 Y101.497 E.01514
G1 X121.347 Y102.335 E.01811
G1 X121.392 Y102.933 E.01282
G1 X121.406 Y103.55 E.01319
G1 X121.391 Y104.135 E.01251
G1 X121.343 Y104.745 E.01308
G1 X121.189 Y105.774 E.02224
G1 X121.058 Y106.366 E.01296
G1 X120.763 Y107.363 E.02223
G1 X120.55 Y107.931 E.01297
G1 X120.119 Y108.878 E.02224
G1 X119.827 Y109.415 E.01307
G1 X119.504 Y109.942 E.01321
G1 X119.155 Y110.451 E.01319
G1 X118.779 Y110.941 E.0132
G1 X118.378 Y111.41 E.01319
G1 X117.953 Y111.858 E.0132
G1 X117.509 Y112.279 E.01308
G1 X116.706 Y112.941 E.02225
G1 X116.208 Y113.296 E.01307
G1 X115.692 Y113.625 E.01308
G1 X114.778 Y114.121 E.02223
G1 X114.221 Y114.375 E.01309
G1 X113.647 Y114.601 E.01319
G1 X113.061 Y114.797 E.01321
G1 X112.471 Y114.961 E.01309
G1 X111.452 Y115.168 E.02223
G1 X110.845 Y115.248 E.01309
G1 X110.23 Y115.297 E.01319
G1 X109.618 Y115.313 E.01309
G1 X108.579 Y115.267 E.02223
G1 X107.971 Y115.198 E.01308
G1 X107.367 Y115.097 E.01309
G1 X106.356 Y114.854 E.02223
G1 X105.772 Y114.67 E.01309
G1 X105.194 Y114.454 E.01319
G1 X104.628 Y114.208 E.01319
G1 X104.075 Y113.932 E.01321
G1 X103.538 Y113.628 E.01319
G1 X103.017 Y113.296 E.01321
G1 X102.514 Y112.938 E.0132
G1 X102.035 Y112.557 E.01308
G1 X101.269 Y111.854 E.02222
G1 X100.847 Y111.41 E.01309
G1 X100.446 Y110.941 E.01319
G1 X100.07 Y110.451 E.0132
G1 X99.73 Y109.957 E.01282
G1 X99.196 Y109.05 E.0225
G1 X98.923 Y108.503 E.01307
G1 X98.677 Y107.936 E.01321
G1 X98.46 Y107.358 E.0132
G1 X98.278 Y106.781 E.01293
G1 X98.034 Y105.763 E.02238
G1 X97.933 Y105.159 E.01309
G1 X97.864 Y104.564 E.0128
G1 X97.82 Y103.555 E.02159
M204 P1000
G1 X97.561 Y103.507 F12000
M204 P600
G1 F1200
G1 X97.607 Y102.464 E.02232
G1 X97.678 Y101.841 E.0134
G1 X97.782 Y101.218 E.0135
G1 X97.919 Y100.602 E.01349
G1 X98.087 Y99.994 E.01348
G1 X98.287 Y99.396 E.01348
G1 X98.513 Y98.823 E.01317
G1 X98.973 Y97.857 E.02287
G1 X99.282 Y97.311 E.01341
G1 X99.621 Y96.779 E.01348
G1 X99.987 Y96.265 E.01349
G1 X100.37 Y95.783 E.01316
G1 X101.093 Y94.994 E.02288
G1 X101.548 Y94.562 E.01341
G1 X102.028 Y94.152 E.01349
G1 X102.526 Y93.77 E.01342
G1 X103.408 Y93.186 E.02261
G1 X103.954 Y92.877 E.01341
G1 X104.519 Y92.595 E.0135
G1 X105.098 Y92.344 E.01349
G1 X105.686 Y92.124 E.01342
G1 X106.7 Y91.823 E.02261
G1 X107.313 Y91.687 E.01342
G1 X107.935 Y91.583 E.01348
G1 X108.562 Y91.512 E.01349
G1 X109.189 Y91.474 E.01343
G1 X110.247 Y91.483 E.02262
G1 X110.872 Y91.532 E.0134
G1 X111.498 Y91.614 E.0135
G1 X112.118 Y91.729 E.01348
G1 X112.729 Y91.876 E.01343
G1 X113.738 Y92.194 E.02261
G1 X114.319 Y92.423 E.01335
G1 X115.274 Y92.878 E.02261
G1 X115.82 Y93.187 E.01341
G1 X116.349 Y93.525 E.01342
G1 X117.2 Y94.154 E.02262
G1 X117.677 Y94.562 E.01342
G1 X118.135 Y94.996 E.01349
G1 X118.562 Y95.446 E.01326
G1 X119.24 Y96.268 E.02278
G1 X119.604 Y96.779 E.01341
G1 X119.943 Y97.311 E.01348
G1 X120.254 Y97.86 E.01349
G1 X120.535 Y98.425 E.01349
G1 X120.787 Y99.003 E.01348
G1 X121.003 Y99.58 E.01317
G1 X121.169 Y100.14 E.01249
G1 X121.338 Y100.747 E.01347
G1 X121.479 Y101.459 E.01552
G1 X121.603 Y102.315 E.01849
G1 X121.649 Y102.926 E.0131
G1 X121.663 Y103.557 E.01349
G1 X121.648 Y104.149 E.01266
G1 X121.599 Y104.774 E.0134
G1 X121.442 Y105.821 E.02263
G1 X121.307 Y106.43 E.01333
G1 X121.007 Y107.445 E.02262
G1 X120.788 Y108.03 E.01335
G1 X120.349 Y108.992 E.0226
G1 X120.05 Y109.544 E.01342
G1 X119.72 Y110.082 E.01349
G1 X119.363 Y110.602 E.01348
G1 X118.979 Y111.103 E.01349
G1 X118.569 Y111.582 E.01348
G1 X118.135 Y112.04 E.01349
G1 X117.679 Y112.472 E.01343
G1 X116.863 Y113.145 E.02261
G1 X116.352 Y113.509 E.01341
G1 X115.822 Y113.847 E.01344
G1 X114.893 Y114.352 E.0226
G1 X114.322 Y114.612 E.01341
G1 X113.735 Y114.843 E.01348
G1 X113.136 Y115.043 E.0135
G1 X112.531 Y115.211 E.01342
G1 X111.495 Y115.422 E.0226
G1 X110.872 Y115.504 E.01343
G1 X110.243 Y115.553 E.01349
G1 X109.616 Y115.57 E.01341
G1 X108.559 Y115.524 E.02262
G1 X107.935 Y115.453 E.01342
G1 X107.316 Y115.349 E.01342
G1 X106.287 Y115.102 E.02262
G1 X105.689 Y114.913 E.01341
G1 X105.098 Y114.692 E.01349
G1 X104.519 Y114.441 E.01349
G1 X103.954 Y114.159 E.0135
G1 X103.405 Y113.849 E.01348
G1 X102.873 Y113.509 E.0135
G1 X102.359 Y113.143 E.01349
G1 X101.868 Y112.752 E.01342
G1 X101.088 Y112.038 E.0226
G1 X100.656 Y111.582 E.01343
G1 X100.246 Y111.103 E.01348
G1 X99.862 Y110.602 E.01349
G1 X99.514 Y110.095 E.01315
G1 X98.97 Y109.173 E.02288
G1 X98.69 Y108.611 E.01342
G1 X98.438 Y108.033 E.01348
G1 X98.217 Y107.442 E.01349
G1 X98.03 Y106.85 E.01327
G1 X97.781 Y105.814 E.02278
G1 X97.678 Y105.195 E.01341
G1 X97.608 Y104.584 E.01315
G1 X97.562 Y103.545 E.02223
M204 P1000
G1 X97.304 Y103.496 F12000
M204 P600
;TYPE:External perimeter
G1 F1200
G1 X97.35 Y102.444 E.02251
G1 X97.423 Y101.805 E.01375
G1 X97.53 Y101.169 E.01379
G1 X97.669 Y100.54 E.01377
G1 X97.841 Y99.919 E.01377
G1 X98.046 Y99.308 E.01378
G1 X98.277 Y98.721 E.01348
G1 X98.745 Y97.738 E.02327
G1 X99.062 Y97.178 E.01376
G1 X99.408 Y96.635 E.01376
G1 X99.782 Y96.11 E.01378
G1 X100.175 Y95.616 E.01349
G1 X100.91 Y94.813 E.02327
G1 X101.376 Y94.371 E.01373
G1 X101.866 Y93.952 E.01378
G1 X102.377 Y93.56 E.01377
G1 X103.274 Y92.966 E.023
G1 X103.834 Y92.65 E.01375
G1 X104.411 Y92.362 E.01379
G1 X105.001 Y92.105 E.01376
G1 X105.604 Y91.88 E.01376
G1 X106.636 Y91.574 E.02301
G1 X107.264 Y91.435 E.01375
G1 X107.899 Y91.329 E.01376
G1 X108.54 Y91.256 E.01379
G1 X109.182 Y91.216 E.01375
G1 X110.258 Y91.226 E.023
G1 X110.899 Y91.276 E.01374
G1 X111.538 Y91.36 E.01378
G1 X112.172 Y91.478 E.01379
G1 X112.797 Y91.628 E.01374
G1 X113.824 Y91.952 E.02302
G1 X114.421 Y92.187 E.01371
G1 X115.392 Y92.65 E.023
G1 X115.952 Y92.967 E.01376
G1 X116.495 Y93.313 E.01376
G1 X117.36 Y93.953 E.023
G1 X117.849 Y94.371 E.01375
G1 X118.316 Y94.814 E.01376
G1 X118.755 Y95.276 E.01362
G1 X119.444 Y96.111 E.02314
G1 X119.817 Y96.635 E.01375
G1 X120.163 Y97.178 E.01376
G1 X120.481 Y97.739 E.01378
G1 X120.768 Y98.316 E.01378
G1 X121.025 Y98.907 E.01378
G1 X121.247 Y99.498 E.0135
G1 X121.415 Y100.067 E.01268
G1 X121.589 Y100.691 E.01385
G1 X121.733 Y101.421 E.01591
G1 X121.859 Y102.295 E.01888
G1 X121.906 Y102.92 E.0134
G1 X121.92 Y103.563 E.01375
G1 X121.905 Y104.162 E.01281
G1 X121.854 Y104.804 E.01377
G1 X121.695 Y105.868 E.023
G1 X121.556 Y106.495 E.01373
G1 X121.251 Y107.527 E.023
G1 X121.026 Y108.128 E.01372
G1 X120.579 Y109.107 E.02301
G1 X120.273 Y109.673 E.01375
G1 X119.936 Y110.222 E.01377
G1 X119.571 Y110.753 E.01377
G1 X119.179 Y111.264 E.01377
G1 X118.76 Y111.754 E.01378
G1 X118.316 Y112.222 E.01379
G1 X117.85 Y112.665 E.01374
G1 X117.019 Y113.349 E.02301
G1 X116.496 Y113.723 E.01374
G1 X115.953 Y114.068 E.01375
G1 X115.007 Y114.582 E.02301
G1 X114.422 Y114.849 E.01375
G1 X113.822 Y115.085 E.01378
G1 X113.211 Y115.289 E.01377
G1 X112.591 Y115.461 E.01375
G1 X111.537 Y115.676 E.02299
G1 X110.899 Y115.76 E.01376
G1 X110.257 Y115.81 E.01377
G1 X109.614 Y115.827 E.01375
G1 X108.539 Y115.78 E.023
G1 X107.899 Y115.707 E.01377
G1 X107.265 Y115.601 E.01374
G1 X106.219 Y115.35 E.02299
G1 X105.605 Y115.156 E.01376
G1 X105.001 Y114.931 E.01378
G1 X104.41 Y114.674 E.01378
G1 X103.834 Y114.386 E.01377
G1 X103.273 Y114.069 E.01377
G1 X102.729 Y113.723 E.01378
G1 X102.205 Y113.348 E.01377
G1 X101.701 Y112.948 E.01375
G1 X100.908 Y112.221 E.023
G1 X100.465 Y111.754 E.01376
G1 X100.047 Y111.264 E.01377
G1 X99.654 Y110.753 E.01378
G1 X99.297 Y110.233 E.01348
G1 X98.744 Y109.296 E.02326
G1 X98.457 Y108.72 E.01376
G1 X98.2 Y108.129 E.01378
G1 X97.974 Y107.525 E.01379
G1 X97.783 Y106.919 E.01358
G1 X97.529 Y105.866 E.02315
G1 X97.423 Y105.231 E.01376
G1 X97.352 Y104.604 E.01349
G1 X97.304 Y103.533 E.02292
M204 P1000
G1 X97.522 Y103.372 F12000
G1 E-.64 F2100
;WIPE_START
G1 F9600
G1 X97.336 Y102.764 E-.16
;WIPE_END
G1 Z.35 F720
G1 X97.562 Y102.779 F12000
G1 X102.007 Y101.522
G1 X102.206 Y101.472
G1 X102.408 Y101.442
G1 X102.613 Y101.432
G1 X102.817 Y101.442
G1 X103.02 Y101.472
G1 X103.218 Y101.522
G1 X103.411 Y101.591
G1 X103.596 Y101.678
G1 X103.772 Y101.783
G1 X105.931 Y103.345
G1 X105.927 Y103.518
G1 X105.932 Y103.711
G1 X105.947 Y103.903
G1 X105.972 Y104.095
G1 X106.007 Y104.284
G1 X106.052 Y104.472
G1 X106.107 Y104.657
G1 X106.171 Y104.839
G1 X106.245 Y105.017
G1 X106.328 Y105.191
G1 X106.421 Y105.361
G1 X106.521 Y105.525
G1 X106.631 Y105.684
G1 X106.748 Y105.838
G1 X106.873 Y105.984
G1 X107.006 Y106.124
G1 X107.146 Y106.257
G1 X107.293 Y106.383
G1 X107.446 Y106.5
G1 X107.605 Y106.609
G1 X107.77 Y106.71
G1 X107.939 Y106.802
G1 X108.113 Y106.885
G1 X108.292 Y106.959
G1 X108.474 Y107.023
G1 X108.659 Y107.078
G1 X108.846 Y107.123
G1 X109.036 Y107.158
G1 X109.227 Y107.184
G1 X109.42 Y107.199
G1 X109.613 Y107.204
G1 X109.805 Y107.199
G1 X109.998 Y107.184
G1 X110.189 Y107.158
G1 X110.379 Y107.123
G1 X117.02 Y105.564
G1 X117.218 Y105.514
G1 X117.411 Y105.445
G1 X117.596 Y105.358
G1 X117.772 Y105.253
G1 X117.936 Y105.131
G1 X118.088 Y104.993
G1 X118.225 Y104.841
G1 X118.347 Y104.677
G1 X118.452 Y104.502
G1 X118.54 Y104.317
G1 X118.606 Y104.132
G1 X118.85 Y104.22
G1 Z.2 F720
G1 E.8 F1500
M204 P600
;TYPE:Perimeter
G1 F1200
G1 X118.625 Y104.749 E.01229
G1 X118.181 Y105.28 E.0148
G1 X117.602 Y105.66 E.0148
G1 X117.108 Y105.812 E.01105
G1 X116.75 Y105.873 E.00776
G1 X116.245 Y105.848 E.01081
G1 X116.06 Y105.812 E.00403
G1 X115.581 Y105.64 E.01088
G1 X115.012 Y105.251 E.01473
G1 X114.578 Y104.712 E.01479
G1 X114.356 Y104.173 E.01246
G1 X114.282 Y103.885 E.00636
G1 X114.257 Y103.381 E.01079
G1 X114.369 Y102.821 E.01221
G1 X114.471 Y102.529 E.00661
G1 X114.73 Y102.096 E.01079
G1 X115.22 Y101.615 E.01468
G1 X115.808 Y101.304 E.01422
G1 X116.05 Y101.231 E.0054
G1 X116.718 Y101.165 E.01435
G1 X116.951 Y101.185 E.005
G1 X117.534 Y101.341 E.0129
G1 X118.035 Y101.636 E.01243
G1 X118.465 Y102.069 E.01304
G1 X118.625 Y102.287 E.00578
G1 X118.841 Y102.743 E.01079
G1 X118.97 Y103.424 E.01482
G1 X118.896 Y104.112 E.01479
G1 X118.865 Y104.185 E.0017
M204 P1000
G1 X118.617 Y104.13 F12000
M204 P600
G1 F1200
G1 X118.392 Y104.639 E.0119
G1 X117.99 Y105.108 E.0132
G1 X117.47 Y105.439 E.01318
G1 X116.875 Y105.605 E.0132
G1 X116.258 Y105.592 E.01319
G1 X116.147 Y105.569 E.00242
G1 X115.669 Y105.399 E.01084
G1 X115.166 Y105.045 E.01315
G1 X114.784 Y104.559 E.01321
G1 X114.598 Y104.086 E.01086
G1 X114.539 Y103.873 E.00472
G1 X114.514 Y103.368 E.01081
G1 X114.648 Y102.766 E.01318
G1 X114.929 Y102.265 E.01228
G1 X115.392 Y101.805 E.01395
G1 X115.918 Y101.536 E.01263
G1 X116.195 Y101.475 E.00606
G1 X116.743 Y101.421 E.01177
G1 X117.364 Y101.553 E.01357
G1 X117.903 Y101.857 E.01323
G1 X118.275 Y102.242 E.01144
G1 X118.392 Y102.397 E.00415
G1 X118.608 Y102.853 E.01079
G1 X118.715 Y103.461 E.0132
G1 X118.632 Y104.096 E.01369
M204 P1000
G1 X118.41 Y103.87 F12000
M204 P600
;TYPE:External perimeter
G1 F1200
G1 X118.387 Y104.037 E.0036
G1 X118.16 Y104.529 E.01158
G1 X117.8 Y104.935 E.0116
G1 X117.337 Y105.219 E.01161
G1 X116.813 Y105.356 E.01158
G1 X116.27 Y105.335 E.01162
G1 X115.756 Y105.157 E.01163
G1 X115.319 Y104.839 E.01155
G1 X114.991 Y104.406 E.01161
G1 X114.803 Y103.897 E.0116
G1 X114.772 Y103.373 E.01122
G1 X114.897 Y102.828 E.01195
G1 X115.172 Y102.36 E.0116
G1 X115.565 Y101.996 E.01145
G1 X116.028 Y101.768 E.01103
G1 X116.769 Y101.677 E.01596
G1 X117.302 Y101.803 E.01171
G1 X117.771 Y102.077 E.01161
G1 X118.139 Y102.475 E.01159
G1 X118.376 Y102.963 E.0116
G1 X118.461 Y103.499 E.0116
G1 X118.415 Y103.833 E.00721
M204 P1000
G1 X118.549 Y103.965 F12000
G1 E-.64 F2100
;WIPE_START
G1 F9600
G1 X118.387 Y104.037 E-.04279
G1 X118.16 Y104.529 E-.1126
G1 X118.145 Y104.546 E-.00461
;WIPE_END
G1 Z.35 F720
G1 X118.338 Y104.689 F12000
G1 X118.225 Y104.841
G1 X118.088 Y104.993
G1 X117.936 Y105.131
G1 X117.772 Y105.253
G1 X117.596 Y105.358
G1 X117.411 Y105.445
G1 X117.218 Y105.514
G1 X117.02 Y105.564
G1 X116.817 Y105.594
G1 X116.613 Y105.604
G1 X116.408 Y105.594
G1 X116.206 Y105.564
G1 X116.007 Y105.514
G1 X115.814 Y105.445
G1 X115.629 Y105.358
G1 X115.453 Y105.253
G1 X115.331 Y105.162
G1 X112.694 Y105.539
G1 X112.915 Y105.691
G1 Z.2 F720
G1 E.8 F1500
M204 P600
;TYPE:Perimeter
G1 F1200
G1 X112.461 Y106.271 E.01574
G1 X111.826 Y106.803 E.01771
G1 X111.095 Y107.192 E.0177
G1 X110.42 Y107.387 E.01502
