; generated by PrusaSlicer 2.6.1+MacOS-x64 on 2023-09-17 at 12:08:17 UTC


;
;

;
;

;
;
; 

; external perimeters extrusion width = 0.40mm
; perimeters extrusion width = 0.40mm
; infill extrusion width = 0.40mm
; solid infill extrusion width = 0.40mm
; top infill extrusion width = 0.40mm
; first layer extrusion width = 0.50mm

M73 P0 R46
M201 X2500 Y2500 Z200 E2500 ; sets maximum accelerations, mm/sec^2
M203 X200 Y200 Z40 E100 ; sets maximum feedrates, mm / sec
M204 P2000 R1200 T2000 ; sets acceleration (P, T) and retract acceleration (R), mm/sec^2
M205 X8.00 Y8.00 Z2.00 E10.00 ; sets the jerk limits, mm/sec
M205 S0 T0 ; sets the minimum extruding and travel feed rate, mm/sec
;TYPE:Custom
M17 ; enable steppers
M862.3 P "MK4" ; printer model check
M862.1 P0.4 ; nozzle diameter check
M555 X112.541 Y88.5408 W32 H28.9183

G90 ; use absolute coordinates
M83 ; extruder relative mode

M140 S60 ; set bed temp

M104 S170 ; set extruder temp for bed leveling
M109 R170 ; wait for temp


M84 E ; turn off E motor

G28 ; home all without mesh bed level

G1 X42 Y-4 Z5 F4800

M302 S160 ; lower cold extrusion limit to 160C


G1 E-2 F2400 ; retraction


M84 E ; turn off E motor

G29 P9 X10 Y-4 W32 H4

M106 S100

G0 Z40 F10000

M190 S60 ; wait for bed temp

M107

;
; MBL
;
M84 E ; turn off E motor
G29 P1 ; invalidate mbl & probe print area
G29 P1 X0 Y0 W50 H20 C ; probe near purge place
G29 P3.2 ; interpolate mbl probes
G29 P3.13 ; extrapolate mbl outside probe area
G29 A ; activate mbl

; prepare for purge
M104 S215
G0 X0 Y-4 Z15 F4800 ; move away and ready for the purge
M109 S215

G92 E0
M569 S0 E ; set spreadcycle mode for extruder

;
; Extrude purge line
;
G92 E0 ; reset extruder position
G1 E2 F2400 ; deretraction after the initial one before nozzle cleaning
G0 E7 X15 Z0.2 F500 ; purge
G0 X25 E4 F500 ; purge
G0 X35 E4 F650 ; purge
G0 X45 E4 F800 ; purge
G0 X48 Z0.05 F8000 ; wipe, move close to the bed
G0 X51 Z0.2 F8000 ; wipe, move quickly away from the bed

G92 E0
M221 S100 ; set flow to 100%
G21 ; set units to millimeters
G90 ; use absolute coordinates
M83 ; use relative distances for extrusion
M900 K0.05 ; Filament gcode



M142 S36 ; set heatbreak target temp
M107
;LAYER_CHANGE
;Z:0.2
;HEIGHT:0.2
;BEFORE_LAYER_CHANGE
G92 E0.0
;0.2


G1 E-.8 F2100
G1 Z.2 F720
;AFTER_LAYER_CHANGE
;0.2
; printing object Curtain Gear.stl id:0 copy 0
G1 Z.4
G1 X113.906 Y105 F12000
M73 P0 R45
G1 Z.2 F720
G1 E.8 F1500
M204 P600
;TYPE:Perimeter
;WIDTH:0.499999
G1 F1200
G1 X113.949 Y104.023 E.03717
G1 X114.013 Y103.456 E.02169
G1 X114.109 Y102.883 E.02208
G1 X114.235 Y102.316 E.02208
G1 X114.39 Y101.756 E.02208
G1 X114.575 Y101.205 E.02209
G1 X114.78 Y100.684 E.02128
G1 X115.209 Y99.782 E.03796
G1 X115.49 Y99.286 E.02167
G1 X115.802 Y98.796 E.02208
G1 X116.14 Y98.323 E.0221
G1 X116.488 Y97.884 E.02129
G1 X117.162 Y97.148 E.03793
G1 X117.569 Y96.762 E.02132
G1 X118.331 Y96.134 E.03753
G1 X118.796 Y95.802 E.02172
G1 X119.286 Y95.49 E.02208
G1 X119.791 Y95.204 E.02206
G1 X120.311 Y94.945 E.02208
G1 X120.844 Y94.713 E.02209
G1 X121.379 Y94.513 E.02171
G1 X122.326 Y94.233 E.03753
G1 X122.883 Y94.109 E.02169
G1 X123.456 Y94.013 E.02208
G1 X124.033 Y93.948 E.02207
G1 X124.603 Y93.913 E.0217
G1 X125.591 Y93.921 E.03755
G1 X126.16 Y93.966 E.02169
G1 X126.736 Y94.042 E.02208
G1 X127.307 Y94.148 E.02207
G1 X127.862 Y94.281 E.02169
G1 X128.804 Y94.578 E.03754
G1 X129.326 Y94.784 E.02133
G1 X130.217 Y95.209 E.03752
G1 X130.714 Y95.49 E.0217
G1 X131.196 Y95.797 E.02172
G1 X131.99 Y96.384 E.03753
G1 X132.424 Y96.755 E.0217
G1 X132.845 Y97.155 E.02207
G1 X133.235 Y97.566 E.02153
G1 X133.866 Y98.331 E.03769
G1 X134.198 Y98.796 E.02172
G1 X134.51 Y99.286 E.02208
G1 X134.796 Y99.791 E.02206
G1 X135.055 Y100.311 E.02208
G1 X135.287 Y100.844 E.02209
G1 X135.483 Y101.369 E.0213
G1 X135.631 Y101.867 E.01975
G1 X135.798 Y102.465 E.0236
G1 X135.915 Y103.053 E.02279
G1 X136.036 Y103.87 E.03139
G1 X136.08 Y104.433 E.02146
G1 X136.094 Y104.99 E.02118
G1 X136.051 Y105.977 E.03755
G1 X135.987 Y106.544 E.02169
G1 X135.891 Y107.117 E.02208
G1 X135.767 Y107.674 E.02169
G1 X135.487 Y108.621 E.03753
G1 X135.29 Y109.147 E.02135
G1 X134.881 Y110.046 E.03754
G1 X134.608 Y110.547 E.02168
G1 X134.305 Y111.043 E.02209
G1 X133.976 Y111.521 E.02205
G1 X133.622 Y111.982 E.02209
G1 X133.245 Y112.424 E.02208
G1 X132.852 Y112.838 E.0217
G1 X132.124 Y113.505 E.03753
G1 X131.677 Y113.861 E.02172
G1 X131.204 Y114.198 E.02207
G1 X130.722 Y114.505 E.02172
G1 X129.854 Y114.976 E.03753
G1 X129.335 Y115.213 E.02168
G1 X128.795 Y115.425 E.02205
G1 X128.244 Y115.61 E.02209
G1 X127.684 Y115.765 E.02208
G1 X127.127 Y115.889 E.02169
G1 X126.15 Y116.035 E.03754
G1 X125.581 Y116.079 E.02169
G1 X125 Y116.095 E.02209
G1 X124.429 Y116.08 E.02171
G1 X123.446 Y115.985 E.03753
G1 X122.893 Y115.892 E.02131
G1 X121.932 Y115.662 E.03756
G1 X121.388 Y115.49 E.02168
G1 X120.853 Y115.29 E.02171
G1 X119.954 Y114.881 E.03754
G1 X119.453 Y114.608 E.02168
G1 X118.957 Y114.305 E.02209
G1 X118.479 Y113.976 E.02205
G1 X118.018 Y113.622 E.02209
G1 X117.576 Y113.245 E.02208
G1 X117.155 Y112.845 E.02207
G1 X116.755 Y112.424 E.02207
G1 X116.384 Y111.99 E.0217
G1 X115.797 Y111.196 E.03753
G1 X115.495 Y110.722 E.02136
G1 X115.024 Y109.854 E.03753
G1 X114.787 Y109.335 E.02168
G1 X114.574 Y108.795 E.02206
G1 X114.39 Y108.244 E.02208
G1 X114.235 Y107.684 E.02208
G1 X114.109 Y107.117 E.02208
G1 X114.013 Y106.544 E.02208
G1 X113.95 Y105.987 E.0213
G1 X113.909 Y105.06 E.03527
M204 P1000
G1 X113.449 Y105 F12000
M204 P600
G1 F1200
G1 X113.493 Y103.987 E.03854
G1 X113.561 Y103.392 E.02276
G1 X113.66 Y102.796 E.02296
G1 X113.791 Y102.205 E.02301
G1 X113.953 Y101.623 E.02296
G1 X114.145 Y101.049 E.023
G1 X114.36 Y100.501 E.02237
G1 X114.803 Y99.571 E.03915
G1 X115.098 Y99.05 E.02276
G1 X115.423 Y98.54 E.02298
G1 X115.774 Y98.048 E.02297
G1 X116.141 Y97.587 E.0224
G1 X116.836 Y96.827 E.03914
G1 X117.266 Y96.419 E.02253
G1 X118.053 Y95.771 E.03875
G1 X118.54 Y95.423 E.02275
G1 X119.05 Y95.098 E.02298
G1 X119.577 Y94.8 E.02301
G1 X120.118 Y94.53 E.02298
G1 X120.673 Y94.289 E.023
G1 X121.234 Y94.08 E.02275
G1 X122.211 Y93.79 E.03873
G1 X122.796 Y93.66 E.02278
G1 X123.392 Y93.561 E.02296
G1 X123.993 Y93.492 E.02299
G1 X124.591 Y93.456 E.02277
G1 X125.611 Y93.464 E.03877
G1 X126.207 Y93.511 E.02272
G1 X126.807 Y93.59 E.023
G1 X127.402 Y93.701 E.023
G1 X127.984 Y93.84 E.02274
G1 X128.956 Y94.147 E.03874
G1 X129.508 Y94.364 E.02254
G1 X130.428 Y94.803 E.03874
G1 X130.95 Y95.098 E.02279
G1 X131.455 Y95.42 E.02276
G1 X132.274 Y96.026 E.03872
G1 X132.73 Y96.415 E.02278
G1 X133.168 Y96.832 E.02298
G1 X133.577 Y97.263 E.02258
G1 X134.229 Y98.053 E.03893
G1 X134.577 Y98.54 E.02275
G1 X134.902 Y99.05 E.02298
G1 X135.2 Y99.577 E.02301
G1 X135.47 Y100.118 E.02298
G1 X135.711 Y100.673 E.023
G1 X135.917 Y101.224 E.02236
G1 X136.069 Y101.737 E.02034
G1 X136.244 Y102.366 E.02481
G1 X136.368 Y102.986 E.02403
G1 X136.492 Y103.834 E.03257
G1 X136.537 Y104.422 E.02241
G1 X136.552 Y104.994 E.02175
G1 X136.507 Y106.013 E.03877
G1 X136.439 Y106.608 E.02276
G1 X136.34 Y107.204 E.02296
G1 X136.21 Y107.789 E.02278
G1 X135.92 Y108.767 E.03877
G1 X135.713 Y109.322 E.02251
G1 X135.29 Y110.25 E.03876
G1 X135.004 Y110.776 E.02276
G1 X134.688 Y111.292 E.023
G1 X134.346 Y111.79 E.02296
G1 X133.977 Y112.27 E.02301
G1 X133.585 Y112.73 E.02297
G1 X133.172 Y113.164 E.02277
G1 X132.421 Y113.853 E.03874
G1 X131.952 Y114.226 E.02277
G1 X131.46 Y114.577 E.02297
G1 X130.955 Y114.899 E.02276
G1 X130.058 Y115.385 E.03877
G1 X129.514 Y115.634 E.02274
G1 X128.951 Y115.855 E.02299
G1 X128.377 Y116.047 E.023
G1 X127.795 Y116.209 E.02296
G1 X127.21 Y116.338 E.02277
G1 X126.202 Y116.489 E.03874
G1 X125.605 Y116.536 E.02276
G1 X125 Y116.552 E.023
G1 X124.401 Y116.536 E.02277
G1 X123.386 Y116.438 E.03876
G1 X122.802 Y116.341 E.0225
G1 X121.81 Y116.103 E.03877
G1 X121.239 Y115.922 E.02277
G1 X120.678 Y115.713 E.02275
G1 X119.75 Y115.29 E.03876
G1 X119.224 Y115.004 E.02276
G1 X118.708 Y114.688 E.023
G1 X118.21 Y114.346 E.02296
G1 X117.73 Y113.977 E.02301
G1 X117.27 Y113.585 E.02297
G1 X116.832 Y113.168 E.02298
G1 X116.415 Y112.73 E.02298
G1 X116.026 Y112.274 E.02278
G1 X115.42 Y111.455 E.03872
G1 X115.101 Y110.955 E.02254
G1 X114.615 Y110.059 E.03874
G1 X114.366 Y109.514 E.02277
G1 X114.145 Y108.951 E.02299
G1 X113.953 Y108.377 E.023
G1 X113.791 Y107.795 E.02296
G1 X113.66 Y107.204 E.02301
G1 X113.561 Y106.608 E.02296
G1 X113.494 Y106.023 E.02238
G1 X113.451 Y105.06 E.03664
M204 P1000
G1 X112.992 Y104.986 F12000
M204 P600
;TYPE:External perimeter
G1 F1200
G1 X113.037 Y103.951 E.03937
G1 X113.108 Y103.329 E.02379
G1 X113.212 Y102.709 E.02389
G1 X113.348 Y102.095 E.0239
G1 X113.516 Y101.489 E.0239
G1 X113.715 Y100.893 E.02388
G1 X113.941 Y100.319 E.02345
G1 X114.398 Y99.36 E.04037
G1 X114.706 Y98.815 E.02379
G1 X115.044 Y98.285 E.02389
G1 X115.409 Y97.773 E.0239
G1 X115.793 Y97.29 E.02345
G1 X116.51 Y96.507 E.04035
G1 X116.963 Y96.077 E.02374
G1 X117.774 Y95.408 E.03996
G1 X118.285 Y95.044 E.02384
G1 X118.815 Y94.706 E.02389
G1 X119.362 Y94.397 E.02388
G1 X119.925 Y94.116 E.02391
G1 X120.501 Y93.865 E.02388
G1 X121.088 Y93.646 E.02381
G1 X122.097 Y93.347 E.04
G1 X122.709 Y93.212 E.02382
G1 X123.329 Y93.108 E.02389
G1 X123.953 Y93.037 E.02387
G1 X124.579 Y92.998 E.02384
G1 X125.631 Y93.008 E.03998
G1 X126.255 Y93.057 E.02379
G1 X126.879 Y93.139 E.02392
G1 X127.497 Y93.253 E.02388
G1 X128.106 Y93.4 E.02381
G1 X129.109 Y93.716 E.03997
G1 X129.691 Y93.945 E.02377
G1 X130.64 Y94.398 E.03997
G1 X131.185 Y94.706 E.02379
G1 X131.714 Y95.043 E.02384
G1 X132.559 Y95.668 E.03995
G1 X133.036 Y96.076 E.02386
G1 X133.492 Y96.508 E.02387
G1 X133.92 Y96.959 E.02363
G1 X134.592 Y97.774 E.04015
G1 X134.956 Y98.285 E.02384
G1 X135.294 Y98.815 E.02389
G1 X135.603 Y99.362 E.02388
G1 X135.884 Y99.925 E.02391
G1 X136.135 Y100.501 E.02388
G1 X136.351 Y101.078 E.02342
G1 X136.507 Y101.607 E.02096
G1 X136.691 Y102.267 E.02604
G1 X136.82 Y102.918 E.02522
G1 X136.948 Y103.798 E.0338
G1 X136.994 Y104.41 E.02333
G1 X137.009 Y104.998 E.02235
G1 X136.963 Y106.049 E.03998
G1 X136.892 Y106.671 E.02379
G1 X136.788 Y107.291 E.02389
G1 X136.653 Y107.903 E.02382
G1 X136.354 Y108.912 E.04
G1 X136.135 Y109.497 E.02374
G1 X135.699 Y110.454 E.03997
G1 X135.4 Y111.005 E.02383
G1 X135.072 Y111.541 E.02388
G1 X134.716 Y112.059 E.02389
G1 X134.333 Y112.558 E.02391
G1 X133.924 Y113.036 E.02391
G1 X133.493 Y113.49 E.02379
G1 X132.718 Y114.201 E.03997
G1 X132.227 Y114.591 E.02383
G1 X131.715 Y114.956 E.0239
G1 X131.187 Y115.293 E.02381
G1 X130.263 Y115.795 E.03997
G1 X129.692 Y116.054 E.02383
G1 X129.107 Y116.285 E.0239
G1 X128.511 Y116.484 E.02388
G1 X127.905 Y116.652 E.0239
G1 X127.293 Y116.788 E.02383
G1 X126.253 Y116.943 E.03996
G1 X125.629 Y116.993 E.02379
G1 X125 Y117.009 E.02391
G1 X124.373 Y116.993 E.02384
G1 X123.327 Y116.892 E.03994
G1 X122.71 Y116.789 E.02377
G1 X121.688 Y116.543 E.03995
G1 X121.09 Y116.355 E.02382
G1 X120.503 Y116.135 E.02383
G1 X119.546 Y115.699 E.03997
G1 X118.996 Y115.4 E.02379
G1 X118.459 Y115.072 E.02392
G1 X117.941 Y114.716 E.02389
G1 X117.442 Y114.333 E.02391
G1 X116.964 Y113.924 E.02391
G1 X116.508 Y113.492 E.02387
G1 X116.076 Y113.036 E.02387
G1 X115.668 Y112.559 E.02386
G1 X115.043 Y111.714 E.03995
G1 X114.707 Y111.187 E.02375
G1 X114.206 Y110.263 E.03995
G1 X113.946 Y109.692 E.02385
G1 X113.715 Y109.107 E.0239
G1 X113.516 Y108.511 E.02388
G1 X113.348 Y107.905 E.0239
G1 X113.212 Y107.291 E.0239
G1 X113.108 Y106.671 E.02389
G1 X113.038 Y106.059 E.02341
G1 X112.993 Y105.046 E.03854
M204 P1000
G1 X113.339 Y104.788 F12000
G1 E-.8 F2100
G1 Z.4 F720
G1 X114.966 Y104.662 F12000
G1 Z.2 F720
G1 E.8 F1500
M204 P600
;TYPE:Perimeter
G1 F1200
G1 X114.979 Y104.534 E.00489
G1 X115.116 Y103.987 E.02143
G1 X115.244 Y103.677 E.01275
G1 X115.534 Y103.193 E.02144
G1 X115.747 Y102.934 E.01274
G1 X116.165 Y102.555 E.02144
G1 X116.495 Y102.345 E.01487
G1 X116.954 Y102.128 E.0193
G1 X117.318 Y102.024 E.01439
G1 X117.832 Y101.948 E.01975
G1 X118.244 Y101.946 E.01566
G1 X119 Y102.113 E.02943
G1 X119.323 Y102.244 E.01325
G1 X119.807 Y102.534 E.02144
G1 X120.066 Y102.747 E.01274
G1 X120.445 Y103.165 E.02144
G1 X120.625 Y103.434 E.0123
G1 X120.793 Y102.996 E.01783
G1 X121.161 Y102.359 E.02796
G1 X121.544 Y101.882 E.02325
G1 X121.768 Y101.641 E.0125
G1 X122.192 Y101.279 E.02119
G1 X122.929 Y100.832 E.03276
G1 X123.41 Y100.633 E.01978
G1 X122.96 Y100.277 E.02181
G1 X122.62 Y99.901 E.01927
G1 X122.266 Y99.382 E.02388
G1 X122.044 Y98.772 E.02467
G1 X121.974 Y98.431 E.01323
G1 X121.946 Y97.868 E.02142
G1 X121.989 Y97.493 E.01435
G1 X122.116 Y96.987 E.01983
G1 X122.244 Y96.677 E.01275
G1 X122.534 Y96.193 E.02144
G1 X122.747 Y95.934 E.01274
G1 X123.165 Y95.555 E.02144
G1 X123.444 Y95.369 E.01274
G1 X123.954 Y95.128 E.02144
G1 X124.274 Y95.031 E.01271
G1 X124.832 Y94.948 E.02144
G1 X125.244 Y94.946 E.01566
G1 X125.959 Y95.102 E.02781
G1 X126.323 Y95.244 E.01485
G1 X126.807 Y95.534 E.02144
G1 X127.066 Y95.747 E.01274
G1 X127.445 Y96.165 E.02144
G1 X127.659 Y96.504 E.01524
G1 X127.932 Y97.109 E.02523
G1 X128.042 Y97.766 E.02532
G1 X128.052 Y98.168 E.01528
G1 X127.969 Y98.726 E.02144
G1 X127.847 Y99.1 E.01495
G1 X127.631 Y99.556 E.01918
G1 X127.445 Y99.835 E.01274
G1 X127.066 Y100.253 E.02144
G1 X126.564 Y100.611 E.02343
G1 X127.185 Y100.9 E.02603
G1 X127.637 Y101.159 E.0198
G1 X128.209 Y101.622 E.02797
G1 X128.718 Y102.188 E.02893
G1 X129.114 Y102.835 E.02883
G1 X129.304 Y103.215 E.01615
G1 X129.38 Y103.45 E.00939
G1 X129.647 Y103.037 E.01869
G1 X130.155 Y102.565 E.02635
G1 X130.444 Y102.369 E.01327
G1 X130.954 Y102.128 E.02144
G1 X131.274 Y102.031 E.01271
G1 X131.832 Y101.948 E.02144
G1 X132.306 Y101.951 E.01802
G1 X132.983 Y102.109 E.02642
G1 X133.323 Y102.244 E.0139
G1 X133.807 Y102.534 E.02144
G1 X134.066 Y102.747 E.01274
G1 X134.445 Y103.165 E.02144
G1 X134.631 Y103.444 E.01274
G1 X134.872 Y103.954 E.02144
G1 X134.969 Y104.274 E.01271
G1 X135.052 Y104.832 E.02144
G1 X135.052 Y105.168 E.01277
G1 X134.969 Y105.726 E.02144
G1 X134.872 Y106.046 E.01271
G1 X134.631 Y106.556 E.02144
G1 X134.368 Y106.92 E.01707
G1 X133.876 Y107.421 E.02669
G1 X133.323 Y107.756 E.02457
G1 X133.013 Y107.884 E.01275
G1 X132.466 Y108.021 E.02143
G1 X132.132 Y108.054 E.01276
G1 X131.569 Y108.026 E.02142
G1 X131.24 Y107.961 E.01275
G1 X130.702 Y107.768 E.02172
G1 X130.413 Y107.613 E.01246
G1 X129.96 Y107.277 E.02144
G1 X129.654 Y106.947 E.0171
G1 X129.367 Y106.59 E.01741
G1 X129.166 Y107.079 E.02009
G1 X128.841 Y107.637 E.02454
G1 X128.378 Y108.209 E.02797
G1 X127.637 Y108.841 E.03701
G1 X127.173 Y109.115 E.02048
G1 X126.785 Y109.304 E.0164
G1 X126.55 Y109.38 E.00939
G1 X126.94 Y109.628 E.01757
G1 X127.287 Y109.991 E.01909
G1 X127.489 Y110.217 E.01152
G1 X127.846 Y110.898 E.02922
G1 X127.969 Y111.274 E.01504
G1 X128.052 Y111.832 E.02144
G1 X128.046 Y112.207 E.01425
G1 X127.969 Y112.726 E.01994
G1 X127.872 Y113.046 E.01271
G1 X127.631 Y113.556 E.02144
G1 X127.445 Y113.835 E.01274
G1 X127.066 Y114.253 E.02144
G1 X126.807 Y114.466 E.01274
G1 X126.323 Y114.756 E.02144
G1 X125.944 Y114.901 E.01542
G1 X125.437 Y115.028 E.01986
G1 X125.026 Y115.049 E.01564
G1 X124.513 Y115.022 E.01952
G1 X123.737 Y114.781 E.03088
G1 X123.413 Y114.613 E.01387
G1 X122.96 Y114.277 E.02144
G1 X122.723 Y114.04 E.01274
G1 X122.387 Y113.587 E.02144
G1 X122.229 Y113.291 E.01275
G1 X122.039 Y112.76 E.02143
G1 X121.974 Y112.431 E.01275
G1 X121.946 Y111.868 E.02142
G1 X121.986 Y111.508 E.01377
G1 X122.116 Y110.987 E.02041
G1 X122.244 Y110.677 E.01275
G1 X122.534 Y110.193 E.02144
G1 X122.747 Y109.934 E.01274
G1 X123.165 Y109.555 E.02144
G1 X123.434 Y109.375 E.0123
G1 X122.996 Y109.207 E.01783
G1 X122.359 Y108.839 E.02796
G1 X121.882 Y108.456 E.02325
G1 X121.577 Y108.154 E.01631
G1 X121.159 Y107.637 E.02527
G1 X120.742 Y106.875 E.03301
G1 X120.617 Y106.58 E.01218
G1 X120.445 Y106.835 E.01169
G1 X120.066 Y107.253 E.02144
G1 X119.807 Y107.466 E.01274
G1 X119.323 Y107.756 E.02144
G1 X119.013 Y107.884 E.01275
G1 X118.466 Y108.021 E.02143
G1 X118.132 Y108.054 E.01276
